X: 42499
T: What It Is
R: jig
M: 6/8
K: Fdorian
FG|:AGF FEF|CFB, DFG|AGF FEF|cFB def|AGF FEF|
CFB, D2F|1 GFG CGD|GEG F3:|2 GFG CGD|GEG FFG||
K: Fmaj
|:AGF FEF|CFA B,FB|AGF A,FA|cAF dBG|
cAF dBG|cAF EFG|GFG CGD|GEG F3:|

